X: 1402
T: The Highway To Limerick
M:C|
L:1/8
N:"collected by F. O'Neill"
B:O'Neill's 1402
Z:"Transcribed by Bob Safranek, rjs@gsp.org"
K:Am
EAAB          cBAc  | BAGB  dBGA  | EAAB    cBcd | ((3e^fg) dB TBA A2 :|
eaag          e^fge | dBGc  AG E2 | eaag  e^f^ga | ba^gb a2 (ab) |
((3c'ba) (bg) e^fge | dBgd TBG G2 | EAAB {d}cBcd | ((3e^fg) dB TBA A2 |]


